X: 19241
T: It's Nice To Be Nice
R: jig
M: 6/8
K: Dmajor
|:FAd {f}g2f|e2d e/fz|FAd {f}a2f|efd {d}cAG|
FAd {f}g2f|{f}e2d efg|aAA {f}g2f|edc {c}d2z:|
|:c3 cBA|efe efg|aAA {f}g2f|1 e2d edB:|2 edc {c}d2z||
c3 cBA|efe efg|aAA {f}g2f 2e2d efa|
bff {g}fed|Bgg gfg|aAA {f}g2f|edc d2z||

